img/gitlab.svg

<?xml version="1.0" encoding="UTF-8" standalone="no"?>
<svg
   xmlns:dc="http://purl.org/dc/elements/1.1/"
   xmlns:cc="http://creativecommons.org/ns#"
   xmlns:rdf="http://www.w3.org/1999/02/22-rdf-syntax-ns#"
   xmlns:svg="http://www.w3.org/2000/svg"
   xmlns="http://www.w3.org/2000/svg"
   xmlns:sodipodi="http://sodipodi.sourceforge.net/DTD/sodipodi-0.dtd"
   xmlns:inkscape="http://www.inkscape.org/namespaces/inkscape"
   viewBox="0 0 32 32"
   height="32"
   width="32"
   version="1.1"
   id="svg4"
   sodipodi:docname="gitlab.svg"
   inkscape:version="0.92.2 (unknown)">
  <metadata
     id="metadata10">
    <rdf:RDF>
      <cc:Work
         rdf:about="">
        <dc:format>image/svg+xml</dc:format>
        <dc:type
           rdf:resource="http://purl.org/dc/dcmitype/StillImage" />
        <dc:title />
      </cc:Work>
    </rdf:RDF>
  </metadata>
  <defs
     id="defs8" />
  <sodipodi:namedview
     pagecolor="#ffffff"
     bordercolor="#666666"
     borderopacity="1"
     objecttolerance="10"
     gridtolerance="10"
     guidetolerance="10"
     inkscape:pageopacity="0"
     inkscape:pageshadow="2"
     inkscape:window-width="1920"
     inkscape:window-height="1046"
     id="namedview6"
     showgrid="false"
     inkscape:zoom="20.85965"
     inkscape:cx="10.329027"
     inkscape:cy="16.041236"
     inkscape:window-x="0"
     inkscape:window-y="34"
     inkscape:window-maximized="1"
     inkscape:current-layer="svg4" />
  <path
     style="fill:#ffffff;fill-opacity:1;fill-rule:evenodd;stroke:none;stroke-width:0.06091278"
     d="M 6.6054688 2.3652344 C 6.3763463 2.3652344 6.1481024 2.496378 6.0625 2.7597656 L 2.734375 13 L 1.0566406 18.166016 C 0.90346597 18.637239 1.0698985 19.154068 1.4707031 19.445312 L 16 30 L 30.529297 19.445312 C 30.930102 19.154066 31.096452 18.637239 30.943359 18.166016 L 29.265625 13 L 25.9375 2.7597656 C 25.830548 2.4305311 25.499805 2.3083164 25.224609 2.390625 C 25.059492 2.4400178 24.915764 2.5621943 24.851562 2.7597656 L 21.523438 13 L 10.476562 13 L 7.1484375 2.7597656 C 7.0628759 2.496378 6.8345912 2.3652344 6.6054688 2.3652344 z "
     id="path46" />
</svg>

<svg width="32" height="32" version="1.1" viewBox="0 0 32 32" xmlns="http://www.w3.org/2000/svg"><path d="m6.6055 2.3652c-0.22912 0-0.45737 0.13114-0.54297 0.39453l-3.3281 10.24-1.6777 5.166c-0.15317 0.47122 0.013258 0.98805 0.41406 1.2793l14.529 10.555 14.529-10.555c0.4008-0.29125 0.56716-0.80807 0.41406-1.2793l-1.6777-5.166-3.3281-10.24c-0.10695-0.32923-0.4377-0.45145-0.71289-0.36914-0.16512 0.049393-0.30884 0.17157-0.37305 0.36914l-3.3281 10.24h-11.047l-3.3281-10.24c-0.085562-0.26339-0.31385-0.39453-0.54297-0.39453z" fill="#fff" fill-rule="evenodd"/></svg>
